X:1
T:Parting Hymn
T:Parting Hymn
T:Flavius Josephus Lutz, 1905
T:Grace Livingston Lutz, 1905
T:Public Domain Courtesy of the Cyber Hymnal™
C:Flavius Josephus Lutz, 1905
Z:Public Domain
Z:Courtesy of the Cyber Hymnal™
%%score ( 1 2 ) ( 3 4 )
L:1/8
Q:1/4=110
M:4/4
K:Eb
V:1 treble 
V:2 treble 
V:3 bass 
V:4 bass 
V:1
 [EG]4 [EA]2 [EG]2 | E2 [EG]6 | [DF]4 [B,E]2 [DF]2 | [EG]2 [EB]6 | [EG]4 [EA]2 [EG]2 | E2 [EG]6 | %6
w: 1.~As we are|part- ing,|May God go|with you,|Give you His|com- fort,|
w: 2.~Oft- en be-|fore Him|Our souls shall|me- et,|In sweet com-|mun- ion|
w: 3.~God grant His|glo- ry|Through us may|shi- ne,|Lov- ing re-|flect- ion|
w: 4.~If on the|mor- row|Dan- gers shall|co- me,|May guard- ian|an- gels|
w: 5.~Safe in the|shel- ter,|When storms be-|tide you,|Un- der His|strong wings|
w: 6.~Now, peace go|with you,|In joy or|pa- in,|And, in His|tem- ple,|
 [DF]2 (GA) [EG]2 [DF]2 | [B,E]8 |] %8
w: Make His * pro- mise|true.|
w: At the * mer- cy|seat.|
w: Of the * life di-|vine.|
w: Camp round~a- * bout your|home.|
w: Close may * He hide|you.|
w: May we * meet a-|gain.|
V:2
 x8 | E2 x6 | x8 | x8 | x8 | E2 x6 | x2 D2 x4 | x8 |] %8
V:3
 [E,B,]4 [E,C]2 [E,B,]2 | [E,G,]2 [E,B,]6 | [B,,A,]4 [B,,G,]2 [B,,A,]2 | [E,B,]2 [E,G,]6 | %4
 [E,B,]4 [E,C]2 [E,B,]2 | [E,G,]2 [E,B,]6 | [B,,A,]2 (A,F,) [B,,B,]2 [B,,B,]2 | [E,G,]8 |] %8
V:4
 x8 | x8 | x8 | x8 | x8 | x8 | x2 B,,2 x4 | x8 |] %8

